X: 142
M: C
L: 1/8
K: D
[V:1](de) | {d}f2 (A>B) {B}A3 d | ({=c}BA) (Bd)
[V:2] D2 | D2 (F>G) F2 F2 | G2 (GB)
[V:1]{f}e2 (de) | f2 A2 (gf) (ed) | ({=c}B3 ^c) d2 (de) |
[V:2] A2 (dc) | d2 c2 B2 F2 | (G2 A2) [F2D2] D2 |
[V:1]f2 (A>B) A3 d | (BA) (Bd) e2 (de) |
[V:2] D2 (AG) F3 F | G2 (GB) A2 (dc) |
[V:1]({d}f2) A2 (gf) (ed) | ({=c}B3 ^c)  d2    |]
[V:2]    d2  c2  B2   F2  |     (G2 A2) [F2D2] |]
[V:1] zA | (de) (fg) {f}a3 a | (ba) (gf) e3 A |
[V:2] A2 | (dc) (de) f3 f | (gf) (ed) A3 A |
[V:1] (de) (fg) (ab) (ag) | (f3 g) a2 zA |
[V:2] (dc) (de) (fg) (fe) | (d3 e) f2 zA |
[V:1] (de) (fg) a2 (fa) | (ba) (gf) e2 (de) |
[V:2] (dc) (de) f2 f2 | (gf) (ed) A2 (FE) |
[V:1] f2  A2 (gf) (ed) | ({=c}B3 ^c) ({e}d2) |]
[V:2] D2 (DE) F2   D2  |     (G2 A2)  [F2D2] |]

